X:62
T:Glory Reel
B:NFID.162b
062glory
S:F&MB
Z:Robinson/Black
N:C sharps as per source. [BB]
L:1/8
M:C
R:reel
Q:360
K:G
G2BG dGBG|G2BG AFDF|GBBG dGBG|(3ccc Bc AFD|
E2B2B2 ^cA|BGEG AFDF|[B4E4] [B2E2] ^cA|Bd^cB AFDF|
[B4E4] [B2E2] ^cA|BGEG AFDF|[B4E4] [B2E2] ^cA|Bd^cB AFDf||
gagf edef|g2fg e^cAF|gagf e2af|gefd e^cA|

%%%

